X: 152
T: the First of December
B: 204 Favourite Country Dances
N: Published by Straight & Skillern, London ca.1775
F: http://imslp.org/wiki/204_Favourite_Country_Dances_(Various) p.76 #152
Z: 2014 John Chambers <jc:trillian.mit.edu>
M: C|
L: 1/8
K: D
% - - - - - - - - - - - - - - - - - - - - - - - - -
|:\
[fAD]gaf gfed | efge dcBA |\
Bdce dfeg | fdec d2D2 :|\
|:\
efef efge | fgfg fgaf |
efef efge | fgaf {f}e4 |\
[fAD]gaf gfed | efge dcBA |\
Bdce dfeg | fdec d2D2 :|
% - - - - - - - - - - - - - - - - - - - - - - - - -
%%begintext align
%% Set across and turn the 2d Lady .| the Lady do the
%% same to the 2d Man :| Cross over one Cu. Lead up &
%% Cast off .|: hands round four at Bottom Right and
%% Left at top :||
%%endtext

%%sep 1 1 500
%%sep 1 1 500
